X:675
M:C
L:1/8
K:D
d<B A>F D2D:|
|:g|f<ad<f e<cd<B|A<Fd<F E2 E<g|f<ad<f e>cd>B|A<Fd<F D2D:|
|:F|A,>D G/F/E/D/ A>D G/F/E/D/|A>d B/A/G/F/ E2 E>F|
|:g|f<dA<D e>c A<F|G<BA<F E2E<g|1 f<dA<d e<cA<F|G<BA<F D2D:|2
f>de>c d<B A>F|A<Fd<F D2D||

